svgs/sharp-light/audio-description.svg

<svg xmlns="http://www.w3.org/2000/svg" viewBox="0 0 576 512"><!--! Font Awesome Pro 6.6.0 by @fontawesome - https://fontawesome.com License - https://fontawesome.com/license (Commercial License) Copyright 2024 Fonticons, Inc. --><path d="M544 64l0 384L32 448 32 64l512 0zM32 32L0 32 0 64 0 448l0 32 32 0 512 0 32 0 0-32 0-384 0-32-32 0L32 32zM304 160l0 16 0 160 0 16 16 0 64 0c53 0 96-43 96-96s-43-96-96-96l-64 0-16 0zm32 32l48 0c35.3 0 64 28.7 64 64s-28.7 64-64 64l-48 0 0-128zM202.3 160l-20.5 0-4.3 9.3L93.4 352l35.2 0 22.1-48 1.3 0 80 0 1.3 0 22.1 48 35.2 0-84-182.7-4.3-9.3zM165.5 272L192 214.3 218.5 272l-53.1 0z"/></svg>

<svg xmlns="http://www.w3.org/2000/svg" viewBox="0 0 576 512"><!--! Font Awesome Pro 6.4.2 by @fontawesome - https://fontawesome.com License - https://fontawesome.com/license (Commercial License) Copyright 2023 Fonticons, Inc. --><path d="M544 64V448H32V64H544zM32 32H0V64 448v32H32 544h32V448 64 32H544 32zM304 160v16V336v16h16 64c53 0 96-43 96-96s-43-96-96-96H320 304zm32 32h48c35.3 0 64 28.7 64 64s-28.7 64-64 64H336V192zM202.3 160H181.7l-4.3 9.3L93.4 352h35.2l22.1-48H152h80 1.3l22.1 48h35.2l-84-182.7-4.3-9.3zM165.5 272L192 214.3 218.5 272H165.5z"/></svg>
